simple/instagram.svg

<svg version="1.1" xmlns="http://www.w3.org/2000/svg" xmlns:xlink="http://www.w3.org/1999/xlink" viewBox="0 0 1024 1024">
	<path d="M723.968 365.568h297.984v456.704c0 111.616-90.112 201.728-201.728 201.728h-616.448c-110.592 0-200.704-90.112-200.704-201.728v-456.704h295.936c-30.72 43.008-48.128 94.208-48.128 150.528 0 144.384 116.736 261.12 261.12 261.12s261.12-116.736 261.12-261.12c-1.024-55.296-19.456-107.52-49.152-150.528zM1020.928 201.728v132.096h-323.584c-47.104-48.128-113.664-77.824-186.368-77.824s-138.24 29.696-185.344 77.824h-322.56v-132.096c0-68.608 32.768-128 84.992-164.864v217.088h40.96v-239.616c9.216-4.096 19.456-7.168 28.672-9.216v248.832h40.96v-253.952c2.048 0 3.072 0 5.12 0h23.552v253.952h40.96v-253.952h550.912c111.616 0 201.728 90.112 201.728 201.728zM928.768 116.736c0-17.408-14.336-32.768-32.768-32.768h-107.52c-17.408 0-32.768 14.336-32.768 32.768v111.616c0 17.408 14.336 32.768 32.768 32.768h108.544c17.408 0 32.768-14.336 32.768-32.768l-1.024-111.616zM310.272 517.12c0-60.416 26.624-113.664 68.608-150.528 14.336-13.312 31.744-23.552 49.152-31.744 25.6-11.264 53.248-18.432 82.944-18.432s57.344 6.144 82.944 18.432c18.432 8.192 34.816 19.456 49.152 31.744 41.984 36.864 68.608 91.136 68.608 150.528 0 110.592-90.112 200.704-200.704 200.704s-200.704-90.112-200.704-200.704zM363.52 517.12c0 81.92 66.56 148.48 148.48 148.48s148.48-66.56 148.48-148.48c0-82.944-66.56-148.48-148.48-148.48s-148.48 65.536-148.48 148.48z"></path>
</svg>

<svg xmlns="http://www.w3.org/2000/svg" viewBox="0 0 1024 1024"><path d="M723.968 365.568h297.984v456.704c0 111.616-90.112 201.728-201.728 201.728H203.776C93.184 1024 3.072 933.888 3.072 822.272V365.568h295.936c-30.72 43.008-48.128 94.208-48.128 150.528 0 144.384 116.736 261.12 261.12 261.12s261.12-116.736 261.12-261.12c-1.024-55.296-19.456-107.52-49.152-150.528zm296.96-163.84v132.096H697.344C650.24 285.696 583.68 256 510.976 256s-138.24 29.696-185.344 77.824H3.072V201.728c0-68.608 32.768-128 84.992-164.864v217.088h40.96V14.336c9.216-4.096 19.456-7.168 28.672-9.216v248.832h40.96V0h28.672v253.952h40.96V0H819.2c111.616 0 201.728 90.112 201.728 201.728zm-92.16-84.992c0-17.408-14.336-32.768-32.768-32.768H788.48c-17.408 0-32.768 14.336-32.768 32.768v111.616c0 17.408 14.336 32.768 32.768 32.768h108.544c17.408 0 32.768-14.336 32.768-32.768l-1.024-111.616zM310.272 517.12c0-60.416 26.624-113.664 68.608-150.528 14.336-13.312 31.744-23.552 49.152-31.744 25.6-11.264 53.248-18.432 82.944-18.432s57.344 6.144 82.944 18.432c18.432 8.192 34.816 19.456 49.152 31.744 41.984 36.864 68.608 91.136 68.608 150.528 0 110.592-90.112 200.704-200.704 200.704S310.272 627.712 310.272 517.12zm53.248 0c0 81.92 66.56 148.48 148.48 148.48s148.48-66.56 148.48-148.48c0-82.944-66.56-148.48-148.48-148.48s-148.48 65.536-148.48 148.48z"/></svg>
